X: 465
T: Sibao zhuzhu
%%abc-version 2.0
%%abcx-abcm2ps-target-version 5.9.1 (29 Sep 2008)
%%abc-creator hum2abc beta
%%abcx-conversion-date 2013/10/02 07:52:30
%%abc-edited-by Helmut Schaffrath
%%humdrum-veritas 1763791073
%%humdrum-veritas-data 3308270786
%%continueall 1
%%barnumbers 0
L: 1/8
M: 4/4
K: Bb
f g f df2f d [I:setbarnb 1]| 
c'2>f'2 d' c' b f | 
f' f' f' c' f' d' c' g | 
bf2gf4 | 
f g b c' f' d' c' g | 
b b b c' g f d c | 
b b b f b g f d | 
f d c GB4 |]  



